X:1
T:Les grands douleurs
T:Les grands douleurs
T:(Basse dansse 6)
T:Tielman Susato
C:Tielman Susato
%%score 1 2 3 4
L:1/8
M:3/2
K:C
V:1 treble 
V:2 treble 
V:3 treble 
V:4 treble 
V:1
 E4 E4 E4 | C2 B,2 C2 D2 E4 | F6 E2 D2 C2 | D4 D4 C4 | F6 E2 D2 C2 | D4 E6 D2 | D8 ^C4 | D8 z4 :| %8
 A,4 A,4 A,4 | C2 B,2 C2 D2 C4 | C4 D4 E4 | F4 C4 A,4 | F6 E2 D2 C2 | D4 E6 D2 | D8 ^C4 | D8 z4 | %16
 E4 E4 E4 | C2 B,2 C2 D2 E4 | E2 F2 G2 F2 E2 D2 | E4 E4 E4 | G2 F2 E2 D2 C2 B,2 | A,4 F2 E2 D2 C2 | %22
 B,2 A,2 B,8 | A,8 z4 | A,4 A,4 A,4 | C2 B,2 C2 D2 C4 | C4 D4 E4 | F4 C4 A,4 | F6 E2 D2 C2 | %29
 D4 E6 D2 | D8 ^C4 | D8 z4 | A,4 A,4 A,4 | C2 B,2 C2 D2 C4 | C4 D4 E4 | F4 C4 A,4 | F6 E2 D2 C2 | %37
 D4 E6 D2 | D8 ^C4 | D12 |] %40
V:2
 C4 C4 C4 | A,8 G,4 | F,4 F,4 F,2 E,2 | D,8 E,2 C,2 | C,4 F,2 G,2 A,4 | B,4 C4 A,4 | G,4 A,8 | %7
 A,8 z4 :| F,4 F,4 F,4 | A,8 A,4 | A,4 D,4 G,4 | F,2 G,2 A,2 G,2 F,2 D,2 | D8 A,4 | A,4 C4 A,4 | %14
 G,4 A,8 | A,8 z4 | C4 C4 C4 | G,8 C,4 | G,8 G,4 | C4 C4 C4 | B,4 B,4 A,4 | A,4 A,2 G,2 F,2 E,2 | %22
 D,2 C,2 E,8 | E,8 z4 | D,4 D,4 D,4 | C,8 A,4 | A,4 D,4 G,4 | F,2 G,2 A,2 G,2 F,2 D,2 | D8 A,4 | %29
 A,4 C4 A,4 | G,4 A,8 | A,8 z4 | F,4 F,4 F,4 | A,8 A,4 | A,4 D,4 G,4 | F,2 G,2 A,2 G,2 F,2 D,2 | %36
 D8 A,4 | A,4 C4 A,4 | G,4 A,8 | A,12 |] %40
V:3
 G,4 G,4 G,4 | F,8 E,4 | D,2 E,2 F,2 G,2 A,4 | F,4 G,4 A,4 | A,8 F,4 | F,4 G,4 F,4 | D,4 E,8 | %7
 D,8 z4 :| D,4 D,4 D,4 | E,8 E,4 | F,8 E,4 | D,4 E,4 F,2 G,2 | A,6 G,2 F,2 E,2 | F,4 G,4 F,4 | %14
 D,4 E,8 | D,8 z4 | G,4 G,4 G,4 | E,4 E,4 E,4 | C,2 D,2 E,2 F,2 G,4 | C,6 B,,2 C,2 D,2 | %20
 E,2 F,2 G,2 F,2 E,2 D,2 | E,4 D,2 E,2 F,2 G,2 | A,8 G,4 | A,8 z4 | F,4 F,4 F,4 | E,8 E,4 | %26
 F,8 E,4 | D,4 E,4 F,2 G,2 | A,6 G,2 F,2 E,2 | F,4 G,4 F,4 | D,4 E,8 | D,8 z4 | D,4 D,4 D,4 | %33
 E,8 E,4 | F,8 E,4 | D,4 E,4 F,2 G,2 | A,6 G,2 F,2 E,2 | F,4 G,4 F,4 | D,4 E,8 | D,12 |] %40
V:4
 C,4 C,4 C,4 | F,,2 G,,2 A,,2 B,,2 C,4 | D,6 C,2 A,,4 | B,,8 A,,4 | F,,4 D,,4 D,4 | G,,4 C,4 D,4 | %6
 B,,4 A,,8 | D,,8 z4 :| D,,4 D,,4 D,,4 | A,,8 A,,4 | A,,4 _B,,4 C,4 | D,4 A,,4 D,4 | D,8 D,4 | %13
 D,4 C,4 D,4 | _B,,4 A,,8 | D,8 z4 | C,4 C,4 C,4 | C,6 B,,2 A,,4 | E,6 D,2 C,2 B,,2 | %19
 A,,4 A,,4 A,,4 | E,,8 A,,4 | A,,4 D,,6 E,,2 | F,,4 E,,8 | A,,8 z4 | D,,4 D,,4 D,,4 | A,,8 A,,4 | %26
 A,,4 _B,,4 C,4 | D,4 A,,4 D,4 | D,8 D,4 | D,4 C,4 D,4 | _B,,4 A,,8 | D,,8 z4 | D,,4 D,,4 D,,4 | %33
 A,,8 A,,4 | A,,4 _B,,4 C,4 | D,8 D,4 | D,4 A,,4 D,4 | D,4 C,4 D,4 | _B,,4 A,,8 | D,,12 |] %40

